assets/illustrations/multisize/20/mpp.svg

<?xml version="1.0" encoding="utf-8"?>
<!-- Generator: Adobe Illustrator 21.1.0, SVG Export Plug-In . SVG Version: 6.00 Build 0)  -->
<svg version="1.1" xmlns="http://www.w3.org/2000/svg" xmlns:xlink="http://www.w3.org/1999/xlink" x="0px" y="0px"
	 viewBox="0 0 20 20" enable-background="new 0 0 20 20" xml:space="preserve">
<g id="TEMPLATE" display="none">
	<g display="inline">
		<path fill="#D0D0D0" d="M20,0v20H0V0H20 M21-1h-1H0h-1v1v20v1h1h20h1v-1V0V-1L21-1z"/>
	</g>
	<g display="inline" opacity="0.1">
		<path fill="#FF3A6D" d="M19,1v18H1V1H19 M20,0H0v20h20V0L20,0z"/>
	</g>
</g>
<g id="ICONS">
	<g>
		<polygon fill="#FFFFFF" points="17,18 5,18 5,2 15,2 17,4 		"/>
		<path fill="#949494" d="M15,1H4v18h14V4L15,1z M15,2.5L16.5,4H15V2.5z M17,18H5V2h9v3h3V18z"/>
	</g>
	<polygon fill="#31752F" points="2,6 10,5 10,17 2,16 	"/>
	<path fill="#C8C8C8" d="M15,6h-2h-1h-2v1h2v9h-2v1h2h1h2h1v-1V7V6H15z M15,16h-2V7h2V16z"/>
	<rect x="10" y="8" fill="#8BBF8A" width="4" height="1"/>
	<rect x="10" y="10" fill="#8BBF8A" width="4" height="1"/>
	<rect x="10" y="14" fill="#8BBF8A" width="4" height="1"/>
	<rect x="11" y="12" fill="#8BBF8A" width="4" height="1"/>
	<g>
		<rect x="4" y="9" fill="#FFFFFF" width="1" height="5"/>
		<rect x="7" y="9" fill="#FFFFFF" width="1" height="2"/>
		<rect x="5" y="11" fill="#FFFFFF" width="2" height="1"/>
		<rect x="5" y="8" fill="#FFFFFF" width="2" height="1"/>
		<rect x="4" y="8" fill="#FFFFFF" width="1" height="1"/>
		<rect x="7" y="8" opacity="0.6" fill="#FFFFFF" width="1" height="1"/>
		<rect x="7" y="11" opacity="0.6" fill="#FFFFFF" width="1" height="1"/>
	</g>
</g>
</svg>

<svg id="1f15093f-d06c-416f-a5b6-bdca1a4aa82a" data-name="ICONS" xmlns="http://www.w3.org/2000/svg" viewBox="0 0 20 20"><title>FileTypeIcons_Master_All_NEW</title><polygon points="17 18 5 18 5 2 15 2 17 4 17 18" fill="#fff"/><path d="M15,1H4V19H18V4Zm0,1.5L16.5,4H15ZM17,18H5V2h9V5h3Z" fill="#949494"/><polygon points="2 6 10 5 10 17 2 16 2 6" fill="#31752f"/><path d="M15,6H10V7h2v9H10v1h6V6Zm0,10H13V7h2Z" fill="#c8c8c8"/><rect x="10" y="8" width="4" height="1" fill="#8bbf8a"/><rect x="10" y="10" width="4" height="1" fill="#8bbf8a"/><rect x="10" y="14" width="4" height="1" fill="#8bbf8a"/><rect x="11" y="12" width="4" height="1" fill="#8bbf8a"/><rect x="4" y="9" width="1" height="5" fill="#fff"/><rect x="7" y="9" width="1" height="2" fill="#fff"/><rect x="5" y="11" width="2" height="1" fill="#fff"/><rect x="5" y="8" width="2" height="1" fill="#fff"/><rect x="4" y="8" width="1" height="1" fill="#fff"/><rect x="7" y="8" width="1" height="1" fill="#fff" opacity="0.6"/><rect x="7" y="11" width="1" height="1" fill="#fff" opacity="0.6"/></svg>
